!!!OTL: Die erloeste Sklavin
!!!OTL-incipit: Ich fuhr einstmal auf stiller See
!!!ARE: Europa, Mitteleuropa, Deutschland, Untermainfranken, Spessart
!!!SCT: D0172
!!!TXL: @@DE
!!!YEM: Copyright 1995, estate of Helmut Schaffrath.
**kern	**text
*ICvox	*
*M4/4	*
*k[b-]	*
*F:	*
{12f	Ich
12a	fuhr
12g	einstmal
=1	=1
(8gq	.
4.f)	.
8dd	auf
4.cc	stil
8b-	-ler
=2	=2
(4b-	See
4a)	.
4r}	.
{8a	und
8b-	da
=3	=3
4.cc	wollt'
8a	mein
8ddL	Schiffchen
8cc	.
8b-J	.
8a	.
=4	=4
8aL	un-
8gJ	.
4g	-tergehn,
4g}	.
{8f	und
8a	da
=5	=5
4cc	spannt'
4cc	ich
(8cc	mei-
4ff)	.
8dd	-ne
=6	=6
8ddL	Se-
8ccJ	.
4cc	-gel
(4cc	an
8b-)}	.
{8a	auf
=7	=7
4b-	daß
4b-	ich
8b-L	wei-
8dd	.
8ccJ	.
8b-	-ter
=8	=8
(8b-q	.
4a)	fah-
4cc	-ren
4cc;}	kann,
{8f	und
8a	da
=9	=9
4cc	spannt'
4cc	ich
(8cc	mei-
4ff)	.
8dd	-ne
=10	=10
8ddL	Se-
8ccJ	.
4cc	-gel
(4cc	an
8b-)}	.
{8a	auf
=11	=11
4b-	daß
4b-	ich
8b-L	wei-
8dd	.
8ccJ	.
8b-	-ter
=12	=12
(8b-q	.
4a)	fah-
4cc	-ren
4cc;}	kann.
==	==
!!!AGN: Ballade, Liebe mit gluecklichem Ausgang
!! Grundton ??; Auftakt rhythmisch korrigiert; Verzierungen;
!!    Inzipit = Variante zum Lied
!!!ONB: ESAC (Essen Associative Code) Database: DVA
!!!AMT: simple quadruple
!!!AIN: vox
!!!EED: Helmut Schaffrath
!!!EEV: 1.0
!!!EFL: Flugschrift
!!!ENC: Anna Maria Matuszewska
!!!EEV: 2025/04/04
*-	*-
